24x24/actions/database-change-key.svg

<svg xmlns="http://www.w3.org/2000/svg" viewBox="0 0 24 24">
  <defs id="defs3051">
    <style type="text/css" id="current-color-scheme">
      .ColorScheme-Text {
        color:#5d656b;
      }
      .ColorScheme-Highlight {
        color:#3daee9;
      }
      </style>
  </defs>
 <path 
     style="fill:currentColor;fill-opacity:1;stroke:none" 
     d="M 4 8 L 4 17 L 9 17 L 9 13 L 16 13 L 16 15 L 17 15 L 17 13 L 18 13 L 18 15 L 19 15 L 19 13 L 20 13 L 20 12 L 9 12 L 9 8 L 4 8 z M 5 9 L 8 9 L 8 16 L 5 16 L 5 9 z "
     class="ColorScheme-Text"
     />
 <path 
     style="fill:currentColor;fill-opacity:1;stroke:none" 
     d="M 17.5 3 A 3.499991 3.499991 0 0 0 14 6.5 A 3.499991 3.499991 0 0 0 14.699219 8.59375 L 15.416016 7.8769531 A 2.5 2.5 0 0 1 15 6.5 A 2.5 2.5 0 0 1 17.5 4 A 2.5 2.5 0 0 1 18.876953 4.4160156 L 19.59375 3.6992188 A 3.499991 3.499991 0 0 0 17.5 3 z M 20.300781 4.40625 L 19.583984 5.1230469 A 2.5 2.5 0 0 1 20 6.5 A 2.5 2.5 0 0 1 17.5 9 A 2.5 2.5 0 0 1 16.123047 8.5839844 L 15.40625 9.3007812 A 3.499991 3.499991 0 0 0 17.5 10 A 3.499991 3.499991 0 0 0 21 6.5 A 3.499991 3.499991 0 0 0 20.300781 4.40625 z "
     class="ColorScheme-Highlight"
     />
</svg>

<svg xmlns="http://www.w3.org/2000/svg" viewBox="0 0 24 24"><path style="fill:currentColor;fill-opacity:1;stroke:none;color:#5d656b" d="M4 8v9h5v-4h7v2h1v-2h1v2h1v-2h1v-1H9V8H4zm1 1h3v7H5V9z"/><path style="fill:currentColor;fill-opacity:1;stroke:none;color:#3daee9" d="M17.5 3A3.5 3.5 0 0 0 14 6.5a3.5 3.5 0 0 0 .7 2.094l.716-.717A2.5 2.5 0 0 1 15 6.5 2.5 2.5 0 0 1 17.5 4a2.5 2.5 0 0 1 1.377.416l.717-.717A3.5 3.5 0 0 0 17.5 3zm2.8 1.406-.716.717A2.5 2.5 0 0 1 20 6.5 2.5 2.5 0 0 1 17.5 9a2.5 2.5 0 0 1-1.377-.416l-.717.717A3.5 3.5 0 0 0 17.5 10 3.5 3.5 0 0 0 21 6.5a3.5 3.5 0 0 0-.7-2.094z"/></svg>
